other/dropbox.svg

<?xml version="1.0" encoding="UTF-8"?><svg id="b" xmlns="http://www.w3.org/2000/svg" viewBox="0 0 48 48"><defs><style>.c{fill:none;stroke:#fff;stroke-linecap:round;stroke-linejoin:round;}</style></defs><path class="c" d="m33.81,19.36l9.69,6.17-9.75,6.22-9.75-6.21-9.75,6.21-9.75-6.22,9.69-6.17-9.69-6.17,9.75-6.19,9.75,6.19,9.75-6.19,9.75,6.21-9.69,6.15Zm-.13,0l-9.68-6.16-9.68,6.16,9.68,6.17,9.68-6.17Zm-19.36,15.45l9.75-6.22,9.75,6.22-9.75,6.19-9.75-6.19Z"/></svg>

<svg xmlns="http://www.w3.org/2000/svg" data-name="Layer 2" viewBox="0 0 48 48"><path d="m33.81 19.36 9.69 6.17-9.75 6.22L24 25.54l-9.75 6.21-9.75-6.22 9.69-6.17-9.69-6.17L14.25 7 24 13.19 33.75 7l9.75 6.21Zm-.13 0L24 13.2l-9.68 6.16L24 25.53ZM14.32 34.81l9.75-6.22 9.75 6.22L24.07 41Z" style="fill:none;stroke:#fff;stroke-linecap:round;stroke-linejoin:round"/></svg>
